public/logo-vertical-no-digital.svg

<svg width="122" height="122" viewBox="0 0 122 122" fill="none" xmlns="http://www.w3.org/2000/svg">
<path d="M46.9981 59.8903V26.9981C46.9981 24.2393 46.2812 22.1915 44.8475 20.8548C43.4425 19.518 41.2775 18.8497 38.3528 18.8497H17.3632V8.82416H39.256C45.8798 8.82416 50.9838 10.4596 54.5681 13.7303C58.1524 16.9726 59.9445 21.5943 59.9445 27.5953V59.8903H46.9981ZM17.2341 59.8903V42.399C17.2341 38.9291 17.6069 36.3979 18.3524 34.8052C19.098 33.184 19.7288 32.0606 20.2449 31.4349H30.5677C30.3096 32.5442 30.1089 33.8809 29.9655 35.4451C29.8222 37.0094 29.7505 38.8723 29.7505 41.0338V59.8903H17.2341Z" fill="white"/>
<path d="M88.2575 70.8269V60.8048C91.9933 60.659 94.8907 59.521 96.9498 57.3912C99.038 55.2322 100.083 52.0957 100.083 47.9818V28.7253H69.1962V18.4406H113.408V47.763C113.408 52.577 112.393 56.6763 110.363 60.0608C108.334 63.4161 105.436 66.0128 101.671 67.8509C97.935 69.6599 93.4641 70.6519 88.2575 70.8269Z" fill="white"/>
<path d="M69.7256 38.0075V84.9764H82.5214V36.6508C82.5214 34.4334 82.595 32.5223 82.742 30.9176C82.9185 29.3129 83.1392 27.9416 83.4039 26.8037H72.7702C72.2701 27.4456 71.6377 28.5981 70.8729 30.2612C70.108 31.9242 69.7256 34.5064 69.7256 38.0075Z" fill="white"/>
<path d="M92.3842 77.9296H117.711V91.1028H102.753V115.873H92.3842V77.9296ZM94.2815 120.469L49.9376 102.919V88.9582L102.753 110.49V120.469H94.2815Z" fill="white"/>
<path d="M32.0867 67.3386C38.9994 67.3386 44.2206 69.0017 47.7505 72.3278C51.3098 75.654 53.0894 80.6139 53.0894 87.2078V119.725H39.8524L39.7642 86.1137C39.7642 83.2544 39.1317 81.1245 37.8669 79.724C36.6314 78.3236 34.7194 77.6233 32.1308 77.6233H25.2476C24.7181 79.2281 24.321 81.0224 24.0562 83.0064C23.7915 84.9904 23.6591 86.8723 23.6591 88.652V103.926C23.6591 109.207 22.2619 113.291 19.4674 116.18C16.7023 119.039 12.8195 120.469 7.8188 120.469C6.6128 120.469 5.50971 120.411 4.50958 120.294C3.50945 120.207 2.43578 120.075 1.28857 119.9V109.703C1.75922 109.732 2.24458 109.761 2.74465 109.79C3.24471 109.79 3.73007 109.79 4.20072 109.79C6.34805 109.79 7.9659 109.236 9.0543 108.128C10.1427 107.019 10.6869 105.283 10.6869 102.919V89.8336C10.6869 87.9956 10.9369 85.9094 11.437 83.5753C11.937 81.2413 12.7312 79.2572 13.8196 77.6233H5.39205V67.3386H32.0867Z" fill="white"/>
<path d="M71.9708 7.88269C70.3213 7.35 68.5741 6.29029 67.0266 4.77404C65.5335 3.31116 64.4667 1.65871 63.8929 0.0808716C63.3667 1.74524 62.2864 3.51635 60.7275 5.08164C59.1467 6.66898 57.3464 7.77096 55.6543 8.30512C57.2627 8.85154 58.9555 9.89404 60.4597 11.3678C62.0194 12.896 63.1142 14.6309 63.6673 16.2716C64.1737 14.5613 65.2728 12.7267 66.8815 11.1112C68.4674 9.51886 70.2741 8.41491 71.9708 7.88269Z" fill="white"/>
</svg>

<svg xmlns="http://www.w3.org/2000/svg" width="122" height="122" fill="none" viewBox="0 0 122 122"><path fill="#fff" d="M46.998 59.89V26.998q0-4.138-2.15-6.143-2.108-2.005-6.495-2.005h-20.99V8.824h21.893q9.936 0 15.312 4.906 5.377 4.864 5.377 13.865V59.89zm-29.764 0V42.4q0-5.205 1.118-7.594 1.119-2.431 1.893-3.37h10.323q-.388 1.665-.603 4.01-.215 2.346-.215 5.589V59.89zm71.024 10.937V60.805q5.603-.219 8.692-3.414 3.132-3.238 3.133-9.41V28.726H69.196V18.441h44.212v29.322q0 7.22-3.045 12.298-3.044 5.033-8.692 7.79-5.604 2.713-13.414 2.976"/><path fill="#fff" d="M69.726 38.008v46.968H82.52V36.651q0-3.327.221-5.733.264-2.407.662-4.114H72.77q-.75.963-1.897 3.457t-1.147 7.747M92.384 77.93h25.327v13.173h-14.958v24.77H92.384zm1.897 42.539-44.343-17.55v-13.96l52.815 21.531v9.979z"/><path fill="#fff" d="M32.087 67.339q10.369 0 15.664 4.989 5.338 4.989 5.338 14.88v32.517H39.852l-.088-33.611q0-4.29-1.897-6.39-1.854-2.1-5.736-2.1h-6.883q-.795 2.406-1.192 5.382a43 43 0 0 0-.397 5.646v15.274q0 7.921-4.192 12.254-4.147 4.289-11.648 4.289-1.81 0-3.31-.175-1.5-.131-3.22-.394v-10.197l1.456.087H4.2q3.22 0 4.853-1.662 1.633-1.663 1.633-5.209V89.834q0-2.757.75-6.259.75-3.501 2.383-5.952H5.392V67.34zM71.97 7.883c-1.649-.533-3.396-1.593-4.943-3.109-1.493-1.463-2.56-3.115-3.134-4.693-.526 1.664-1.607 3.435-3.166 5-1.58 1.588-3.38 2.69-5.073 3.224 1.609.547 3.301 1.589 4.806 3.063 1.56 1.528 2.654 3.263 3.207 4.904.507-1.71 1.606-3.545 3.215-5.16 1.585-1.593 3.392-2.697 5.089-3.23"/></svg>
